src/images/social/github.svg

<?xml version="1.0" encoding="UTF-8"?>
<svg width="100px" height="100px" viewBox="0 0 100 100" version="1.1" xmlns="http://www.w3.org/2000/svg" xmlns:xlink="http://www.w3.org/1999/xlink">
    <!-- Generator: Sketch 55.1 (78136) - https://sketchapp.com -->
    <title>x</title>
    <desc>Created with Sketch.</desc>
    <g id="x" stroke="none" stroke-width="1" fill="none" fill-rule="evenodd">
        <rect fill="#FEFEFE" x="0" y="0" width="100" height="100"></rect>
        <g id="github" fill="#1B1B1B" fill-rule="nonzero">
            <path d="M50,0 C22.3857625,0 0,22.3857625 0,50 C0,77.6142375 22.3857625,100 50,100 C77.6142375,100 100,77.6142375 100,50 C100,36.7391755 94.732158,24.0214799 85.3553391,14.6446609 C75.9785201,5.26784202 63.2608245,0 50,0 Z M79.69,79.69 C75.864296,83.5255892 71.3304487,86.5821154 66.34,88.69 C65.0751792,89.2293212 63.7834754,89.7032796 62.47,90.11 L62.47,82.62 C62.47,78.68 61.1366667,75.7833333 58.47,73.93 C60.0344151,73.7871606 61.5900015,73.5601651 63.13,73.25 C64.6391247,72.9313073 66.1256639,72.5137401 67.58,72 C69.0632639,71.4851518 70.4878666,70.8147505 71.83,70 C73.1611097,69.1646006 74.375103,68.155742 75.44,67 C76.6071387,65.7659369 77.5875138,64.3678074 78.35,62.85 C79.2029539,61.0873289 79.8247604,59.2219092 80.2,57.3 C80.6729465,54.9465407 80.9008293,52.5504198 80.88,50.15 C80.997499,45.3811861 79.2462137,40.7553525 76,37.26 C77.5,33.3533333 77.3366667,29.1066667 75.51,24.52 L74.29,24.37 C72.7112925,24.4239336 71.1585581,24.7874841 69.72,25.44 C67.1038022,26.475944 64.6197698,27.8186642 62.32,29.44 C58.3916208,28.3588706 54.334413,27.8172367 50.26,27.83 C46.2049208,27.8111313 42.1666986,28.3529261 38.26,29.44 C36.6915127,28.3593161 35.0510265,27.3870524 33.35,26.53 C32.139742,25.9199552 30.8823495,25.4083035 29.59,25 C28.7477656,24.7305311 27.8797456,24.549554 27,24.46 C26.4875747,24.4168194 25.9724253,24.4168194 25.46,24.46 C25.294254,24.4801683 25.1303944,24.5136091 24.97,24.56 C23.15,29.18 22.9866667,33.4266667 24.48,37.3 C21.2155905,40.7874736 19.4460106,45.4142249 19.55,50.19 C19.5293141,52.5904137 19.7571955,54.9865197 20.23,57.34 C20.6068727,59.2691961 21.2320753,61.1414425 22.09,62.91 C22.8575811,64.4065967 23.8377426,65.7842121 25,67 C26.0649789,68.1556558 27.27896,69.1645044 28.61,70 C29.9522043,70.8146185 31.3767927,71.485013 32.86,72 C34.3269296,72.5221765 35.826891,72.9464418 37.35,73.27 C38.8900018,73.5801461 40.4455872,73.8071413 42.01,73.95 C39.3433333,75.77 38.01,78.6666667 38.01,82.64 L38.01,90.28 C19.8809796,84.9194406 7.56761559,68.1073378 7.92681992,49.2058047 C8.28602425,30.3042716 21.2292604,13.9721447 39.5488613,9.30425409 C57.8684622,4.63636347 77.0490257,12.7832475 86.4095198,29.2081715 C95.770014,45.6330955 93.003271,66.2876559 79.65,79.67 L79.69,79.69 Z" id="Shape"></path>
        </g>
    </g>
</svg>

<svg fill="#1b1b1b" xmlns="http://www.w3.org/2000/svg" viewBox="0 0 100 100">
  <path d="M50 0a50 50 0 1 0 50 50A50 50 0 0 0 50 0zm29.69 79.69a41.86 41.86 0 0 1-13.35 9 40.13 40.13 0 0 1-3.87 1.42v-7.49q0-5.91-4-8.69a43.75 43.75 0 0 0 4.66-.68A35.19 35.19 0 0 0 67.58 72a22.25 22.25 0 0 0 4.25-2 17.71 17.71 0 0 0 3.61-3 17.42 17.42 0 0 0 2.91-4.15 22.75 22.75 0 0 0 1.85-5.55 34.76 34.76 0 0 0 .68-7.15A18.28 18.28 0 0 0 76 37.26q2.25-5.86-.49-12.74l-1.22-.15a12.06 12.06 0 0 0-4.57 1.07 35.57 35.57 0 0 0-7.4 4 44.92 44.92 0 0 0-12.06-1.61 44 44 0 0 0-12 1.61 41.82 41.82 0 0 0-4.91-2.91A25.26 25.26 0 0 0 29.59 25a12.73 12.73 0 0 0-2.59-.54 9.17 9.17 0 0 0-1.54 0 3.12 3.12 0 0 0-.49.1q-2.73 6.93-.49 12.74a18.28 18.28 0 0 0-4.93 12.89 34.78 34.78 0 0 0 .68 7.15 22.76 22.76 0 0 0 1.86 5.57A17.43 17.43 0 0 0 25 67a17.72 17.72 0 0 0 3.61 3 22.27 22.27 0 0 0 4.25 2 35.2 35.2 0 0 0 4.49 1.27 43.76 43.76 0 0 0 4.66.68q-4 2.73-4 8.69v7.64a42 42 0 1 1 41.64-10.61z"/>
</svg>
